alp_040_fap_0040_lut01_v001.cube
TITLE "Generated by Resolve"
LUT_3D_SIZE 5
0.00668345 0.00668345 0.00668345
0.11635 0.088365 0.0876631
0.347768 0.206241 0.158907
0.649195 0.475242 0.343328
0.821866 0.664775 0.576288
0.11194 0.147921 0.125353
0.185916 0.189609 0.0959335
0.391012 0.237964 0.149355
0.65391 0.481041 0.350439
0.839261 0.688502 0.594217
0.255146 0.3617 0.223972
0.26157 0.370825 0.225162
0.457786 0.429099 0.0907454
0.669688 0.501518 0.375219
0.860349 0.718502 0.615183
0.61619 0.651942 0.442603
0.617441 0.652674 0.444221
0.622568 0.655314 0.450065
0.726909 0.687434 0.497307
0.893843 0.775128 0.64976
0.924681 0.86067 0.674281
0.925277 0.861799 0.675441
0.926162 0.863462 0.67715
0.928054 0.866987 0.680751
0.932479 0.875425 0.689632
0.0767529 0.0950484 0.114199
0.154421 0.124056 0.164813
0.368826 0.225177 0.208957
0.650431 0.476783 0.346105
0.823056 0.666087 0.577691
0.136812 0.182147 0.181537
0.19202 0.213764 0.207828
0.429099 0.275074 0.224704
0.655039 0.48249 0.353155
0.841077 0.691051 0.596048
0.265324 0.375418 0.247303
0.272175 0.385367 0.248585
0.460472 0.436149 0.123049
0.670848 0.503044 0.378225
0.862364 0.721386 0.617243
0.616938 0.652461 0.443885
0.618158 0.653193 0.445472
0.623484 0.655955 0.451621
0.728466 0.688716 0.498543
0.895018 0.777569 0.651102
0.924941 0.861158 0.674769
0.925566 0.862333 0.676005
0.926406 0.86392 0.677638
0.928283 0.867414 0.681208
0.932494 0.875471 0.689693
0.186175 0.242741 0.320562
0.194369 0.245121 0.360388
0.409247 0.269245 0.404868
0.661082 0.492348 0.390509
0.825238 0.668666 0.579965
0.195926 0.256687 0.338277
0.206271 0.26247 0.373754
0.436316 0.301839 0.424506
0.665171 0.497765 0.397131
0.844251 0.695476 0.599145
0.382788 0.451713 0.427451
0.392233 0.45687 0.431342
0.481193 0.476265 0.440589
0.681697 0.518975 0.421027
0.864988 0.725292 0.619928
0.631724 0.665278 0.472206
0.63386 0.666468 0.474281
0.641794 0.670619 0.481483
0.734905 0.689357 0.505501
0.896895 0.78146 0.653223
0.925292 0.861814 0.675441
0.925902 0.862959 0.676646
0.926711 0.8645 0.678248
0.928618 0.86807 0.68191
0.932525 0.875547 0.689769
0.457252 0.485267 0.630014
0.460975 0.48806 0.630915
0.475257 0.496773 0.633661
0.663447 0.536614 0.532158
0.846372 0.69575 0.613825
0.468635 0.494331 0.632609
0.472328 0.497108 0.63357
0.486564 0.505913 0.636454
0.680049 0.545861 0.532708
0.862623 0.720119 0.628656
0.490639 0.512474 0.63801
0.494148 0.515114 0.638865
0.50695 0.523705 0.642191
0.69131 0.55845 0.543404
0.88014 0.746899 0.644083
0.626276 0.650721 0.592782
0.629374 0.653208 0.595148
0.636011 0.657404 0.598779
0.693278 0.65214 0.601312
0.903258 0.792996 0.664363
0.926863 0.864942 0.678798
0.927504 0.866148 0.680064
0.928359 0.867781 0.681773
0.930282 0.871519 0.685725
0.932799 0.876188 0.690501
0.893843 0.829938 0.694087
0.899596 0.833417 0.69395
0.905837 0.837156 0.693812
0.910155 0.839612 0.693645
0.924086 0.846113 0.690684
0.90811 0.839307 0.693812
0.909819 0.840787 0.693812
0.911894 0.842451 0.693797
0.915709 0.844938 0.69366
0.925978 0.851514 0.691234
0.914733 0.845029 0.693782
0.916411 0.846494 0.693782
0.918471 0.848234 0.693782
0.921706 0.850767 0.69369
0.927779 0.856611 0.691814
0.922225 0.852049 0.693767
0.923705 0.853513 0.693767
0.925505 0.85536 0.693767
0.927153 0.857893 0.693797
0.929427 0.861433 0.692317
0.932967 0.877516 0.693553
0.933013 0.877577 0.693553
0.933074 0.877668 0.693538
0.933181 0.877806 0.693553
0.933822 0.878172 0.693782
