alp_040_fap_0040_lut01_v001.cube
TITLE "Generated by Resolve"
LUT_3D_SIZE 33
0.00668345 0.00668345 0.00668345
0.00668345 0.00668345 0.00668345
0.00717174 0.00796521 0.00755322
0.00836194 0.0109865 0.00985733
0.0124208 0.0139773 0.0123293
0.0357824 0.0271763 0.0242161
0.0657511 0.046891 0.0452125
0.0927596 0.0690471 0.0687266
0.11635 0.088365 0.0876631
0.137346 0.10135 0.099321
0.15787 0.111284 0.106294
0.180789 0.121965 0.111208
0.207614 0.1337 0.115846
0.239338 0.149081 0.124346
0.27512 0.167285 0.134646
0.311955 0.186419 0.14786
0.347768 0.206241 0.158907
0.389151 0.232975 0.173541
0.452979 0.28394 0.199054
0.581674 0.393957 0.262623
0.620844 0.43238 0.289052
0.626673 0.442771 0.301091
0.631968 0.451881 0.312886
0.639261 0.462303 0.326497
0.649195 0.475242 0.343328
0.661372 0.490745 0.36408
0.675029 0.508019 0.388708
0.68983 0.526467 0.415579
0.708827 0.547219 0.443442
0.734783 0.571252 0.471687
0.763317 0.599481 0.502937
0.789197 0.628901 0.536843
0.821866 0.664775 0.576288
0.00709544 0.00720226 0.00724804
0.00709544 0.00720226 0.00724804
0.00746166 0.00843824 0.00823987
0.00868238 0.0115053 0.0105745
0.0137942 0.0146639 0.0131685
0.0380255 0.0282902 0.0254673
0.0675975 0.0479133 0.0467689
0.0942397 0.0699321 0.0700694
0.117403 0.088777 0.0883192
0.138247 0.101564 0.0995651
0.158724 0.111543 0.106294
0.181781 0.122286 0.111086
0.208911 0.134218 0.115846
0.240665 0.14966 0.124392
0.276585 0.167941 0.134798
0.313207 0.187045 0.148013
0.348974 0.206897 0.159136
0.390753 0.234073 0.173983
0.4551 0.285725 0.199863
0.585611 0.397375 0.264591
0.621195 0.432883 0.289494
0.62681 0.44303 0.301411
0.632136 0.452171 0.313252
0.639506 0.462608 0.326894
0.6495 0.475624 0.343816
0.661784 0.491249 0.364782
0.67538 0.508476 0.38938
0.690349 0.527062 0.416403
0.709484 0.547814 0.444144
0.7355 0.571969 0.472465
0.764065 0.600351 0.503929
0.790021 0.629801 0.537835
0.82269 0.665675 0.577279
0.00827039 0.00935378 0.00935378
0.00827039 0.00935378 0.00935378
0.00862135 0.0106355 0.0104524
0.0099031 0.0136873 0.013077
0.0179751 0.0176089 0.0158236
0.0437629 0.0317693 0.0280003
0.0721141 0.0505684 0.0492409
0.0974441 0.0716106 0.071931
0.119661 0.08925 0.0890974
0.139925 0.101442 0.0994888
0.160433 0.11165 0.105806
0.183749 0.122576 0.110414
0.2112 0.134844 0.115526
0.243229 0.150561 0.124239
0.279088 0.168856 0.134722
0.315572 0.188128 0.148165
0.351507 0.208438 0.159594
0.393484 0.235966 0.174609
0.459083 0.289082 0.201358
0.592477 0.403326 0.268009
0.621775 0.433692 0.290196
0.62707 0.443503 0.301946
0.63241 0.452613 0.313802
0.639902 0.463142 0.327565
0.650019 0.476295 0.344656
0.662394 0.491997 0.365805
0.67599 0.509255 0.390524
0.691081 0.527916 0.417578
0.710552 0.548806 0.445335
0.736706 0.573159 0.473777
0.765164 0.601587 0.505348
0.791394 0.631312 0.539483
0.824063 0.667185 0.578927
0.0127565 0.0178225 0.0153811
0.0127565 0.0178225 0.0153811
0.0141451 0.0200351 0.0173037
0.0179904 0.0254673 0.0212253
0.0274662 0.0307469 0.0230564
0.0539864 0.0439765 0.0317998
0.0802014 0.0602426 0.0486305
0.10277 0.0775464 0.0702983
0.123384 0.0918746 0.0866865
0.142763 0.102281 0.0966354
0.162982 0.11191 0.102968
0.18645 0.122698 0.107881
0.214176 0.135317 0.114321
0.246403 0.151308 0.123629
0.282094 0.169848 0.134371
0.318395 0.189471 0.148196
0.354452 0.2103 0.160021
0.39704 0.238651 0.175463
0.463584 0.292897 0.203052
0.600092 0.409934 0.271824
0.622309 0.434501 0.290883
0.627344 0.443992 0.302525
0.6327 0.453071 0.314382
0.640314 0.463691 0.328252
0.650568 0.476967 0.34551
0.66302 0.492775 0.366857
0.676616 0.510033 0.391684
0.691814 0.528771 0.418769
0.711635 0.549813 0.44651
0.737942 0.57435 0.47509
0.766247 0.602823 0.506767
0.792767 0.632822 0.541146
0.82678 0.671016 0.581674
0.0314031 0.0443122 0.035172
0.0314031 0.0443122 0.035172
0.0336309 0.0475013 0.0379797
0.0382544 0.0539712 0.0430304
0.0463264 0.0601205 0.0436866
0.0699321 0.070222 0.0446021
0.0932479 0.0833143 0.0533913
0.113497 0.0959487 0.0673991
0.131838 0.105257 0.0783093
0.149279 0.111406 0.0859693
0.168353 0.117464 0.0925765
0.191104 0.125444 0.0999466
0.21857 0.136767 0.109728
0.250675 0.152346 0.121248
0.285924 0.17113 0.133257
0.321859 0.191196 0.147967
0.357931 0.212558 0.160372
0.401801 0.242435 0.176699
0.469276 0.297704 0.205203
0.606561 0.415656 0.27512
0.622721 0.435248 0.291539
0.627634 0.444526 0.30312
0.633005 0.453559 0.314977
0.640772 0.464271 0.328969
0.651164 0.477684 0.346395
0.663676 0.493553 0.36791
0.677226 0.510826 0.392844
0.692546 0.529641 0.419974
0.712718 0.550805 0.4477
0.739147 0.57554 0.476417
0.76733 0.604059 0.508186
0.794141 0.634333 0.542809
0.829267 0.674495 0.584176
0.0572061 0.0783093 0.0645762
0.0572061 0.0783093 0.0645762
0.0586709 0.0805066 0.066865
0.061265 0.0844587 0.0707713
0.0675059 0.0899672 0.0712444
0.0869154 0.0983749 0.0671855
0.109224 0.110201 0.0694285
0.129778 0.121309 0.0742351
0.146517 0.128054 0.0766003
0.162234 0.131685 0.0785687
0.179721 0.134264 0.0829023
0.200717 0.137606 0.0903182
0.226551 0.144183 0.101411
0.257221 0.156268 0.115328
0.291279 0.173587 0.130587
0.32636 0.193515 0.146548
0.362219 0.215274 0.16054
0.40763 0.246983 0.178256
0.479088 0.305974 0.209445
0.61265 0.421164 0.278325
0.623117 0.436011 0.292226
0.62797 0.445106 0.303761
0.633326 0.454063 0.315602
0.641245 0.464881 0.329717
0.651774 0.478447 0.347311
0.664347 0.494362 0.368994
0.677867 0.511635 0.394034
0.693278 0.53051 0.421195
0.713802 0.551812 0.448905
0.740368 0.576745 0.477745
0.768429 0.605295 0.509621
0.795514 0.635843 0.544472
0.831754 0.677974 0.586679
0.0778058 0.103609 0.0900587
0.0778058 0.103609 0.0900587
0.078706 0.10486 0.0914626
0.0803693 0.107271 0.0937362
0.0845808 0.111467 0.0947738
0.0995804 0.120134 0.0911727
0.123064 0.132448 0.0884108
0.145968 0.144564 0.0873579
0.163577 0.152041 0.084062
0.179355 0.156435 0.0824598
0.196368 0.158953 0.0839246
0.216052 0.160159 0.0881208
0.239979 0.162325 0.0958724
0.268193 0.168399 0.107942
0.29958 0.18024 0.123552
0.332601 0.197375 0.141085
0.368078 0.218952 0.160052
0.415702 0.253025 0.180453
0.492012 0.316823 0.215183
0.617868 0.426032 0.281239
0.62356 0.436866 0.293004
0.628351 0.445777 0.304463
0.633616 0.454597 0.316258
0.641733 0.465537 0.33051
0.652506 0.479301 0.348348
0.665034 0.495201 0.370123
0.678492 0.512459 0.395254
0.694026 0.531395 0.422431
0.714885 0.552819 0.450111
0.741604 0.577966 0.479088
0.769528 0.606546 0.51107
0.796918 0.637385 0.546151
0.834257 0.681483 0.589181
0.0964065 0.126177 0.109972
0.0964065 0.126177 0.109972
0.0970321 0.12723 0.110903
0.0979171 0.129015 0.112306
0.100099 0.132067 0.113085
0.108995 0.139406 0.110338
0.129427 0.150195 0.102983
0.156191 0.162997 0.0961166
0.177707 0.172656 0.0909895
0.195972 0.179065 0.0903639
0.213947 0.183246 0.0916457
0.233783 0.185519 0.0935225
0.25716 0.187121 0.0973678
0.283757 0.189532 0.104723
0.312154 0.19498 0.116091
0.342153 0.206073 0.133089
0.377142 0.225406 0.156832
0.427604 0.262028 0.182589
0.507774 0.330236 0.221927
0.618372 0.427161 0.282139
0.624048 0.437827 0.293904
0.628794 0.44651 0.305257
0.633875 0.455146 0.31696
0.642222 0.466224 0.33135
0.653193 0.480156 0.349355
0.665751 0.496071 0.371283
0.679149 0.513313 0.39649
0.694774 0.532296 0.423682
0.715984 0.553857 0.451347
0.742855 0.579187 0.48043
0.770642 0.607813 0.51252
0.798306 0.638911 0.547829
0.836759 0.684993 0.591699
0.11194 0.147921 0.125353
0.11194 0.147921 0.125353
0.112413 0.148638 0.125872
0.113222 0.150072 0.126848
0.114443 0.152392 0.127398
0.118486 0.157321 0.125246
0.130632 0.165179 0.115846
0.15906 0.177615 0.10312
0.185916 0.189609 0.0959335
0.209018 0.198917 0.0966964
0.229618 0.205097 0.0988479
0.251011 0.209308 0.100786
0.275105 0.212314 0.103334
0.301442 0.214481 0.107256
0.328328 0.2168 0.113481
0.355871 0.222019 0.12578
0.391012 0.237964 0.149355
0.449287 0.279973 0.186679
0.541527 0.358984 0.236912
0.61912 0.428733 0.283177
0.624598 0.43888 0.294972
0.629038 0.447181 0.306065
0.634073 0.455695 0.317723
0.642741 0.466972 0.332265
0.65391 0.481041 0.350439
0.666468 0.496971 0.372503
0.679805 0.514183 0.397787
0.695521 0.533211 0.424979
0.717113 0.554894 0.452613
0.744106 0.580423 0.481804
0.771756 0.609094 0.513985
0.79971 0.640467 0.549523
0.839261 0.688502 0.594217
0.12578 0.168582 0.139467
0.12578 0.168582 0.139467
0.126223 0.169284 0.139895
0.126955 0.170596 0.140749
0.128115 0.172824 0.141756
0.130449 0.176654 0.141192
0.136156 0.18265 0.132937
0.156313 0.191882 0.115221
0.187793 0.204654 0.102419
0.216541 0.216785 0.102129
0.241947 0.225834 0.104662
0.266529 0.232197 0.107179
0.292226 0.236637 0.109804
0.319158 0.239643 0.112764
0.345632 0.241474 0.116182
0.372717 0.24448 0.123278
0.410498 0.259297 0.145205
0.482704 0.310384 0.194919
0.588312 0.399176 0.25835
0.620325 0.431083 0.284566
0.625177 0.44007 0.296178
0.628595 0.447471 0.306706
0.634333 0.456352 0.318578
0.643427 0.467903 0.333333
0.654734 0.482048 0.351629
0.667247 0.497948 0.373816
0.680507 0.515129 0.399161
0.69633 0.534188 0.426322
0.718257 0.555993 0.45391
0.74551 0.581811 0.483345
0.7729 0.610376 0.51548
0.801129 0.642039 0.551247
0.841779 0.692042 0.59675
0.140581 0.190997 0.154574
0.140581 0.190997 0.154574
0.141192 0.191959 0.155123
0.142077 0.193469 0.156039
0.143236 0.195575 0.157214
0.145312 0.199145 0.157946
0.148836 0.204257 0.154482
0.156313 0.209781 0.136934
0.185107 0.220279 0.11342
0.218235 0.233631 0.107652
0.249149 0.245518 0.109087
0.27834 0.254353 0.112169
0.30695 0.260395 0.115602
0.33518 0.264363 0.118837
0.361852 0.266545 0.121508
0.390005 0.269947 0.126116
0.432853 0.287022 0.148409
0.515206 0.343694 0.206012
0.616144 0.425483 0.272145
0.622202 0.434607 0.286778
0.62591 0.441688 0.297719
0.62826 0.447959 0.30753
0.635081 0.457435 0.319738
0.644526 0.469169 0.334646
0.655726 0.483238 0.352972
0.668132 0.499031 0.37525
0.681331 0.516167 0.400626
0.697261 0.535241 0.427741
0.719493 0.557137 0.455268
0.746838 0.583108 0.484779
0.77406 0.611704 0.517006
0.802579 0.643641 0.552972
0.844312 0.695613 0.599283
0.157839 0.21648 0.170291
0.157839 0.21648 0.170291
0.158312 0.217288 0.170687
0.159152 0.218723 0.17145
0.160418 0.220905 0.172686
0.162219 0.224033 0.173877
0.164843 0.228443 0.172992
0.168688 0.233402 0.164401
0.182666 0.239033 0.136614
0.214908 0.250843 0.117861
0.249958 0.264286 0.114137
0.284337 0.275746 0.116228
0.317403 0.283848 0.119921
0.348089 0.289143 0.123522
0.376028 0.29192 0.12639
0.405341 0.295644 0.13022
0.450401 0.313344 0.154345
0.534218 0.368597 0.215351
0.623117 0.436484 0.277684
0.62504 0.439918 0.290471
0.627329 0.44448 0.300145
0.629129 0.449577 0.309102
0.636286 0.458946 0.321248
0.645884 0.470695 0.336202
0.656855 0.484596 0.354543
0.669108 0.500252 0.376883
0.682277 0.517327 0.402258
0.698314 0.536416 0.429267
0.720836 0.558358 0.456687
0.748211 0.584466 0.486275
0.77525 0.613062 0.518578
0.804059 0.645274 0.554742
0.846876 0.699214 0.601831
0.175967 0.24361 0.185351
0.175967 0.24361 0.185351
0.176699 0.244724 0.185794
0.177462 0.245914 0.186252
0.178622 0.24773 0.18703
0.180148 0.250248 0.188037
0.182361 0.254017 0.188571
0.185031 0.258396 0.185168
0.18912 0.262669 0.170504
0.209354 0.269596 0.137942
0.244297 0.282506 0.122423
0.282887 0.296117 0.119265
0.321477 0.307103 0.12134
0.356512 0.314092 0.124941
0.38732 0.317769 0.128557
0.417411 0.320897 0.133211
0.460777 0.335943 0.157336
0.545113 0.388159 0.219394
0.63064 0.448814 0.283711
0.630182 0.448371 0.296178
0.63064 0.449729 0.304402
0.631525 0.452888 0.312001
0.637644 0.460914 0.323308
0.64712 0.472358 0.338018
0.65803 0.486107 0.35639
0.670222 0.501656 0.378775
0.68333 0.518639 0.404059
0.699474 0.537682 0.43093
0.72224 0.559655 0.458213
0.749645 0.585885 0.487861
0.776471 0.614481 0.520211
0.80557 0.646967 0.556542
0.849454 0.702861 0.60441
0.195499 0.272496 0.198932
0.195499 0.272496 0.198932
0.195972 0.273213 0.199115
0.196674 0.27425 0.199359
0.197681 0.275761 0.199832
0.198947 0.277729 0.200534
0.200793 0.280735 0.201404
0.202991 0.284459 0.200687
0.205188 0.28809 0.193637
0.210163 0.2916 0.17026
0.235401 0.300557 0.137407
0.27422 0.31519 0.123827
0.317418 0.329183 0.12076
0.358389 0.339101 0.122667
0.393973 0.34432 0.126589
0.425666 0.347036 0.13164
0.465766 0.357046 0.15111
0.550088 0.404562 0.21384
0.635401 0.460197 0.286412
0.63946 0.461143 0.303807
0.637446 0.459007 0.311543
0.636774 0.459358 0.317586
0.639872 0.464195 0.32665
0.648386 0.474464 0.340459
0.659327 0.487907 0.358633
0.671504 0.503273 0.380957
0.684474 0.520088 0.406088
0.700694 0.539071 0.432746
0.723705 0.561044 0.459861
0.751141 0.587381 0.48954
0.777752 0.615946 0.52192
0.807141 0.648737 0.558389
0.852079 0.706584 0.607019
0.215671 0.302602 0.211566
0.215671 0.302602 0.211566
0.216175 0.30338 0.211734
0.216953 0.30454 0.211948
0.217639 0.305592 0.212116
0.218845 0.307439 0.212604
0.220325 0.309789 0.213291
0.222065 0.312764 0.213596
0.224002 0.316197 0.211261
0.225513 0.318807 0.199893
0.232547 0.321553 0.163775
0.262638 0.333104 0.13489
0.305287 0.348623 0.122072
0.351644 0.361944 0.118563
0.393362 0.36997 0.120119
0.428672 0.373205 0.124971
0.466453 0.378332 0.137926
0.539132 0.412512 0.195315
0.621622 0.460502 0.274235
0.652644 0.477333 0.311254
0.64831 0.472709 0.321431
0.645518 0.469978 0.326787
0.644923 0.47071 0.332937
0.650813 0.478126 0.344579
0.661143 0.49041 0.36173
0.673075 0.505226 0.383597
0.685817 0.521798 0.408453
0.702052 0.540642 0.434775
0.725322 0.562585 0.461692
0.752743 0.589014 0.491356
0.77911 0.617517 0.523751
0.808804 0.650629 0.560327
0.854765 0.710399 0.609674
0.23592 0.333013 0.221317
0.23592 0.333013 0.221317
0.236347 0.333669 0.221347
0.236896 0.334493 0.221347
0.237568 0.335485 0.221332
0.238437 0.336751 0.221393
0.239673 0.338582 0.221668
0.241108 0.34081 0.222141
0.242954 0.343816 0.222049
0.244968 0.347005 0.218112
0.245975 0.34873 0.200214
0.256672 0.352667 0.157748
0.290547 0.366323 0.130892
0.337148 0.382528 0.114427
0.38436 0.394018 0.107286
0.425254 0.398993 0.109453
0.463172 0.40148 0.120775
0.512215 0.414267 0.161593
0.595605 0.455146 0.241794
0.665492 0.493812 0.313344
0.662669 0.489845 0.331624
0.657267 0.48455 0.339117
0.654521 0.4822 0.343816
0.656214 0.485054 0.351965
0.664134 0.494484 0.366735
0.675181 0.507927 0.387167
0.687449 0.523888 0.411322
0.703639 0.542458 0.437125
0.727184 0.564385 0.463767
0.754482 0.590814 0.49337
0.780575 0.619211 0.525719
0.81059 0.652674 0.562341
0.857511 0.714351 0.61239
0.255146 0.3617 0.223972
0.255146 0.3617 0.223972
0.255406 0.362066 0.223957
0.256123 0.363058 0.22388
0.256672 0.363806 0.223835
0.25745 0.364889 0.223789
0.258457 0.366308 0.223911
0.259785 0.3682 0.224353
0.26157 0.370825 0.225162
0.263905 0.374166 0.225025
0.266651 0.377813 0.219287
0.268605 0.380072 0.194324
0.285191 0.387366 0.149233
0.324697 0.40502 0.114763
0.373999 0.421286 0.0855879
0.418814 0.428733 0.0793622
0.457786 0.429099 0.0907454
0.498619 0.430518 0.115953
0.578882 0.460517 0.195331
0.660929 0.500191 0.293751
0.680003 0.508553 0.337667
0.672816 0.502373 0.352209
0.668269 0.498024 0.35874
0.666255 0.496757 0.364294
0.669688 0.501518 0.375219
0.678294 0.512078 0.392523
0.689647 0.526772 0.415229
0.705623 0.544671 0.439948
0.729412 0.566537 0.466163
0.756436 0.592813 0.495613
0.782162 0.621073 0.527886
0.812528 0.654932 0.564508
0.860349 0.718502 0.615183
0.277806 0.392035 0.219745
0.277806 0.392035 0.219745
0.278279 0.392615 0.219638
0.278859 0.393362 0.219455
0.279759 0.3944 0.218952
0.280781 0.395621 0.218402
0.282109 0.397253 0.217762
0.283604 0.39913 0.217334
0.285359 0.401465 0.217273
0.287724 0.404715 0.21735
0.291356 0.409461 0.215366
0.296162 0.415061 0.204669
0.303456 0.42121 0.167544
0.334936 0.438636 0.110628
0.388128 0.464485 0.0491646
0.432609 0.476356 0.0310979
0.466392 0.473732 0.0400702
0.497063 0.46421 0.0682383
0.545663 0.464942 0.130449
0.625925 0.492821 0.234516
0.688014 0.521798 0.327565
0.690806 0.520974 0.361013
0.684031 0.515602 0.374151
0.679957 0.512276 0.380728
0.679316 0.512688 0.388174
0.68368 0.51902 0.401282
0.692927 0.530968 0.420783
0.708339 0.547662 0.443626
0.732219 0.569223 0.469078
0.758648 0.595102 0.498192
0.783917 0.623117 0.530282
0.814649 0.65745 0.566812
0.863279 0.722866 0.618067
0.313893 0.434226 0.198001
0.313893 0.434226 0.198001
0.314549 0.434974 0.197482
0.315465 0.435996 0.196719
0.316182 0.436805 0.195956
0.317189 0.437919 0.194888
0.31841 0.439277 0.193515
0.32018 0.441016 0.191302
0.323949 0.444297 0.186801
0.328359 0.448234 0.183276
0.334142 0.453574 0.179858
0.34287 0.461524 0.172091
0.360311 0.475257 0.149004
0.401373 0.502174 0.0423743
0.465217 0.544594 0.005066
0.503639 0.560403 0.000122072
0.517922 0.547463 0.00648508
0.527459 0.52314 0.0272526
0.557855 0.506218 0.0722362
0.601373 0.502831 0.166339
0.656672 0.518318 0.282795
0.702892 0.537118 0.358618
0.702388 0.534432 0.385855
0.695674 0.529686 0.397559
0.6925 0.527657 0.404807
0.692988 0.529839 0.414191
0.699031 0.537835 0.429114
0.712978 0.552254 0.448829
0.735973 0.572839 0.472862
0.761318 0.597833 0.501244
0.785946 0.625422 0.532998
0.817121 0.66041 0.569436
0.866285 0.727443 0.621042
0.423438 0.518807 0.0255436
0.423438 0.518807 0.0255436
0.424994 0.519982 0.0230869
0.427787 0.522072 0.0186923
0.430426 0.524041 0.0153811
0.433387 0.526253 0.0124971
0.436225 0.528374 0.0102998
0.440681 0.531716 0.00650034
0.445701 0.53547 0.00373846
0.452796 0.540871 0.000839246
0.460655 0.547204 0.000183108
0.472465 0.555993 0.000350958
0.489921 0.568414 1.5259e-05
0.505806 0.576333 0.000671397
0.519295 0.579568 0.00520333
0.537011 0.583322 0.0136873
0.566979 0.589212 0.0259556
0.598596 0.594965 0.0321355
0.609934 0.57821 0.0528572
0.613626 0.549615 0.127398
0.635798 0.535943 0.241123
0.68159 0.543282 0.340261
0.718151 0.553231 0.391897
0.715038 0.548928 0.411902
0.709316 0.545129 0.422065
0.707439 0.544625 0.430228
0.710414 0.548898 0.440833
0.721706 0.559731 0.456428
0.741375 0.578058 0.478202
0.76495 0.601465 0.505135
0.788571 0.628199 0.536217
0.819791 0.663615 0.572152
0.869383 0.732219 0.624125
0.508782 0.574594 0.000839246
0.508782 0.574594 0.000839246
0.509606 0.575113 0.000656138
0.510491 0.575662 0.000442512
0.512078 0.576654 0.000274662
0.51339 0.577462 0.000183108
0.515084 0.5785 9.15541e-05
0.516274 0.579187 3.0518e-05
0.518013 0.580194 0
0.520088 0.581353 0
0.522042 0.582528 0
0.524453 0.584085 1.5259e-05
0.527764 0.586526 7.62951e-05
0.53434 0.590539 0.0179751
0.544747 0.596658 0.107271
0.559136 0.604959 0.217792
0.5785 0.614313 0.284535
0.602945 0.621637 0.309941
0.628992 0.62356 0.277028
0.642359 0.6168 0.21236
0.643778 0.591546 0.249439
0.661082 0.567422 0.346868
0.702617 0.56611 0.393545
0.732601 0.569375 0.423148
0.730709 0.565087 0.437186
0.726467 0.562524 0.446448
0.727657 0.564248 0.455497
0.735103 0.571191 0.467521
0.749371 0.585794 0.485893
0.770047 0.606638 0.510475
0.792172 0.631952 0.540276
0.82298 0.667521 0.575235
0.872587 0.737224 0.627314
0.556741 0.609461 0.262058
0.556741 0.609461 0.262058
0.557229 0.609796 0.264805
0.557931 0.610285 0.26891
0.558724 0.610834 0.273167
0.559777 0.611551 0.278904
0.560632 0.612085 0.282383
0.56202 0.612985 0.288777
0.563287 0.613748 0.293126
0.564752 0.614679 0.29807
0.566796 0.616175 0.307698
0.56849 0.617563 0.314809
0.570489 0.619364 0.323659
0.573693 0.622049 0.33843
0.578454 0.625635 0.357397
0.585443 0.630564 0.37879
0.594919 0.636698 0.399954
0.607126 0.642542 0.414496
0.624781 0.647547 0.42153
0.647379 0.650507 0.417899
0.665827 0.650172 0.40322
0.670176 0.627802 0.400198
0.683726 0.597421 0.415076
0.721859 0.588571 0.43241
0.74818 0.58706 0.449531
0.747311 0.583078 0.460975
0.746532 0.582437 0.470726
0.75169 0.587152 0.482017
0.761578 0.597391 0.497093
0.776486 0.613947 0.51809
0.797696 0.637842 0.545632
0.827298 0.672999 0.579187
0.876097 0.742901 0.630915
0.587808 0.633341 0.388251
0.587808 0.633341 0.388251
0.58822 0.633661 0.38941
0.588525 0.633875 0.390249
0.58909 0.634302 0.391836
0.589364 0.634485 0.392462
0.590005 0.634958 0.394186
0.590723 0.635462 0.396002
0.591226 0.635782 0.397009
0.592203 0.636423 0.399145
0.593286 0.63714 0.401465
0.594247 0.637766 0.403449
0.595254 0.638437 0.405997
0.596414 0.639231 0.409293
0.598016 0.640223 0.413031
0.60087 0.641901 0.418372
0.605524 0.644587 0.425361
0.613169 0.648722 0.433371
0.623377 0.653208 0.441917
0.638224 0.658167 0.449409
0.65893 0.662989 0.452537
0.678904 0.665934 0.450034
0.689906 0.654505 0.448127
0.709484 0.628534 0.451698
0.745922 0.609552 0.460487
0.764813 0.60502 0.473228
0.764996 0.602502 0.48542
0.767544 0.604379 0.497108
0.774197 0.61146 0.510597
0.785122 0.624155 0.528374
0.805341 0.645853 0.55285
0.834043 0.681697 0.586084
0.880446 0.750317 0.635676
0.604318 0.644678 0.424842
0.604318 0.644678 0.424842
0.604562 0.644831 0.425238
0.604746 0.644938 0.425559
0.604959 0.645075 0.425879
0.605112 0.645167 0.426123
0.605447 0.64538 0.426673
0.605646 0.645502 0.426978
0.605936 0.645685 0.427405
0.606302 0.645899 0.427878
0.606744 0.646159 0.428428
0.607217 0.646433 0.429038
0.607706 0.646708 0.429664
0.60824 0.647013 0.430457
0.608957 0.64741 0.43154
0.610239 0.64802 0.43331
0.612512 0.649073 0.436225
0.616632 0.650965 0.440543
0.623804 0.654475 0.447181
0.63476 0.659464 0.45539
0.650065 0.665354 0.463523
0.670741 0.671717 0.470069
0.690227 0.676265 0.47303
0.704707 0.672129 0.474174
0.730663 0.652659 0.477775
0.76965 0.630091 0.486229
0.782361 0.624338 0.498619
0.782864 0.622919 0.511086
0.787518 0.627604 0.524422
0.797208 0.638392 0.541527
0.815 0.656703 0.564202
0.84538 0.695918 0.599649
0.886152 0.760632 0.642298
0.61619 0.651942 0.442603
0.61619 0.651942 0.442603
0.616297 0.652003 0.442725
0.616464 0.652094 0.442939
0.616617 0.652186 0.443168
0.616785 0.652293 0.443381
0.617014 0.65243 0.443687
0.617166 0.652522 0.44387
0.617441 0.652674 0.444221
0.617655 0.652811 0.444465
0.618021 0.65301 0.444892
0.618357 0.653193 0.445243
0.618814 0.653452 0.445716
0.619394 0.653758 0.446311
0.620081 0.654108 0.447105
0.621073 0.654612 0.448249
0.622568 0.655314 0.450065
0.624949 0.656458 0.452842
0.628992 0.658625 0.45716
0.637369 0.662409 0.462959
0.64976 0.667628 0.469825
0.667002 0.674296 0.478431
0.684031 0.680781 0.48661
0.700908 0.685893 0.492378
0.726909 0.687434 0.497307
0.766278 0.678813 0.504128
0.800427 0.659342 0.513283
0.80325 0.646525 0.524056
0.805768 0.648005 0.538262
0.813611 0.655818 0.555169
0.828809 0.674601 0.577401
0.864439 0.717678 0.615015
0.893843 0.775128 0.64976
0.629252 0.66038 0.460044
0.629252 0.66038 0.460044
0.629435 0.660502 0.460273
0.629633 0.660624 0.460502
0.629816 0.660746 0.460761
0.630014 0.660883 0.461006
0.630243 0.661021 0.461265
0.630503 0.661158 0.46154
0.630701 0.66128 0.461769
0.631128 0.66154 0.462242
0.631434 0.661692 0.462531
0.631876 0.661921 0.462943
0.63241 0.662211 0.463432
0.633112 0.662547 0.463996
0.634028 0.662989 0.46479
0.635081 0.663478 0.465614
0.636622 0.664164 0.466835
0.638849 0.665141 0.468559
0.642252 0.666667 0.471336
0.647807 0.669261 0.47567
0.656931 0.673259 0.481605
0.67071 0.679194 0.489326
0.68545 0.685832 0.498161
0.701091 0.6925 0.507424
0.720394 0.698543 0.515633
0.75552 0.702846 0.522774
0.80383 0.700435 0.529503
0.827283 0.688441 0.538048
0.830106 0.680125 0.551461
0.834897 0.684764 0.569482
0.848325 0.702296 0.590051
0.879728 0.743496 0.630991
0.902419 0.794125 0.657374
0.648783 0.671763 0.480613
0.648783 0.671763 0.480613
0.649088 0.671916 0.480888
0.649287 0.672023 0.481071
0.6495 0.672145 0.48127
0.649897 0.672358 0.481651
0.650217 0.672541 0.481941
0.65066 0.67277 0.482353
0.650935 0.672923 0.482597
0.651347 0.673136 0.482948
0.651804 0.673381 0.48333
0.652323 0.673655 0.483772
0.653025 0.674022 0.484367
0.653681 0.674342 0.484855
0.654597 0.6748 0.485557
0.655726 0.675364 0.486412
0.65716 0.676081 0.48748
0.659083 0.677028 0.488884
0.661875 0.678401 0.491005
0.665873 0.68043 0.494179
0.672053 0.683436 0.498848
0.68014 0.687404 0.504967
0.690745 0.692821 0.512932
0.704723 0.699092 0.522133
0.723018 0.705608 0.531701
0.752911 0.712505 0.54078
0.796719 0.718212 0.547539
0.83476 0.718288 0.552377
0.848386 0.713512 0.562417
0.855055 0.716182 0.582574
