alp_040_fap_0040_lut01_v001.cube
TITLE "Generated by Resolve"
LUT_3D_SIZE 9
0.00668345 0.00668345 0.00668345
0.0124208 0.0139773 0.0123293
0.11635 0.088365 0.0876631
0.207614 0.1337 0.115846
0.347768 0.206241 0.158907
0.620844 0.43238 0.289052
0.649195 0.475242 0.343328
0.708827 0.547219 0.443442
0.821866 0.664775 0.576288
0.0314031 0.0443122 0.035172
0.0463264 0.0601205 0.0436866
0.131838 0.105257 0.0783093
0.21857 0.136767 0.109728
0.357931 0.212558 0.160372
0.622721 0.435248 0.291539
0.651164 0.477684 0.346395
0.712718 0.550805 0.4477
0.829267 0.674495 0.584176
0.11194 0.147921 0.125353
0.114443 0.152392 0.127398
0.185916 0.189609 0.0959335
0.275105 0.212314 0.103334
0.391012 0.237964 0.149355
0.624598 0.43888 0.294972
0.65391 0.481041 0.350439
0.717113 0.554894 0.452613
0.839261 0.688502 0.594217
0.175967 0.24361 0.185351
0.178622 0.24773 0.18703
0.18912 0.262669 0.170504
0.321477 0.307103 0.12134
0.460777 0.335943 0.157336
0.63064 0.449729 0.304402
0.65803 0.486107 0.35639
0.72224 0.559655 0.458213
0.849454 0.702861 0.60441
0.255146 0.3617 0.223972
0.256672 0.363806 0.223835
0.26157 0.370825 0.225162
0.285191 0.387366 0.149233
0.457786 0.429099 0.0907454
0.680003 0.508553 0.337667
0.669688 0.501518 0.375219
0.729412 0.566537 0.466163
0.860349 0.718502 0.615183
0.508782 0.574594 0.000839246
0.512078 0.576654 0.000274662
0.518013 0.580194 0
0.527764 0.586526 7.62951e-05
0.5785 0.614313 0.284535
0.643778 0.591546 0.249439
0.730709 0.565087 0.437186
0.749371 0.585794 0.485893
0.872587 0.737224 0.627314
0.61619 0.651942 0.442603
0.616617 0.652186 0.443168
0.617441 0.652674 0.444221
0.618814 0.653452 0.445716
0.622568 0.655314 0.450065
0.64976 0.667628 0.469825
0.726909 0.687434 0.497307
0.805768 0.648005 0.538262
0.893843 0.775128 0.64976
0.699809 0.701686 0.53164
0.700877 0.702281 0.532723
0.702403 0.703151 0.534249
0.704341 0.70428 0.536095
0.707698 0.70634 0.53904
0.718242 0.712062 0.546212
0.768963 0.737667 0.573754
0.874723 0.775082 0.601602
0.924041 0.851591 0.678965
0.924681 0.86067 0.674281
0.92491 0.861082 0.674708
0.925277 0.861799 0.675441
0.925673 0.862547 0.676219
0.926162 0.863462 0.67715
0.926711 0.8645 0.678218
0.928054 0.866987 0.680751
0.930968 0.872648 0.686778
0.932479 0.875425 0.689632
0.0105592 0.0140993 0.0171817
0.0252384 0.0251621 0.0310063
0.123735 0.0962234 0.103136
0.213718 0.138628 0.132921
0.351995 0.210147 0.166003
0.621851 0.433585 0.290837
0.649607 0.475731 0.344091
0.709194 0.54757 0.443885
0.822431 0.6654 0.576959
0.0443122 0.0611734 0.0581064
0.062974 0.0762188 0.0742809
0.145586 0.112459 0.108766
0.227665 0.144793 0.134081
0.362951 0.217762 0.168261
0.623087 0.43595 0.29305
0.651591 0.478187 0.347173
0.713161 0.551232 0.448264
0.83003 0.675563 0.584939
0.11667 0.154284 0.133761
0.122316 0.163363 0.140337
0.188815 0.194812 0.102541
0.286213 0.214084 0.112413
0.399435 0.245624 0.164858
0.624903 0.43949 0.296437
0.6542 0.481422 0.351095
0.717556 0.555337 0.453178
0.840024 0.68957 0.59498
0.179049 0.248295 0.189593
0.18233 0.253101 0.191455
0.19292 0.268635 0.177005
0.32372 0.309392 0.123949
0.469398 0.342321 0.169299
0.631022 0.450355 0.305776
0.65832 0.486503 0.357092
0.722713 0.560098 0.458778
0.850217 0.703929 0.605173
0.25684 0.364004 0.22594
0.258396 0.366186 0.225879
0.263386 0.373358 0.227146
0.286244 0.38996 0.14995
0.458854 0.430411 0.0927443
0.680507 0.509148 0.339117
0.670069 0.501991 0.376074
0.729885 0.566979 0.466728
0.861341 0.719905 0.61619
0.510185 0.575509 0.00030518
0.513619 0.577646 0.000137331
0.519173 0.580926 0
0.529213 0.587503 0.000564584
0.579446 0.615351 0.291844
0.644175 0.592004 0.257115
0.731106 0.56553 0.437827
0.749905 0.586313 0.486519
0.873533 0.738628 0.628305
0.616464 0.652125 0.443015
0.616846 0.652354 0.443519
0.61767 0.652842 0.444587
0.619104 0.653635 0.446159
0.622858 0.655512 0.450507
0.65008 0.667826 0.470161
0.727565 0.687861 0.497719
0.806195 0.648524 0.538735
0.894408 0.776257 0.650401
0.700435 0.702037 0.53228
0.701503 0.702647 0.533364
0.703044 0.703517 0.53489
0.704875 0.704585 0.536629
0.708263 0.706661 0.539574
0.718868 0.712428 0.546746
0.770123 0.738323 0.57438
0.875166 0.775692 0.60206
0.924239 0.85211 0.679179
0.924773 0.860853 0.674464
0.925032 0.861311 0.674952
0.925429 0.862089 0.675746
0.925826 0.862837 0.676509
0.926284 0.863691 0.677394
0.926802 0.864668 0.678386
0.928145 0.86714 0.680919
0.930983 0.872694 0.686839
0.932479 0.875441 0.689662
0.0767529 0.0950484 0.114199
0.0859846 0.0978714 0.128252
0.154421 0.124056 0.164813
0.240894 0.161242 0.193896
0.368826 0.225177 0.208957
0.623514 0.436774 0.299519
0.650431 0.476783 0.346105
0.709697 0.548119 0.444709
0.823056 0.666087 0.577691
0.090425 0.113497 0.129305
0.098085 0.119646 0.145953
0.168963 0.132448 0.181842
0.256626 0.169543 0.202228
0.383078 0.236072 0.213336
0.62472 0.439078 0.301686
0.652354 0.47921 0.349172
0.71368 0.551781 0.449088
0.831098 0.677043 0.586007
0.136812 0.182147 0.181537
0.141497 0.189578 0.189044
0.19202 0.213764 0.207828
0.311513 0.23447 0.217273
0.429099 0.275074 0.224704
0.62649 0.442512 0.304799
0.655039 0.48249 0.353155
0.718135 0.555917 0.454002
0.841077 0.691051 0.596048
0.195636 0.270298 0.230671
0.199466 0.275944 0.234302
0.211719 0.293294 0.238056
0.328984 0.329351 0.21416
0.476905 0.361944 0.246647
0.633265 0.453498 0.313466
0.659037 0.487526 0.359258
0.723308 0.560678 0.459586
0.851514 0.705745 0.606485
0.265324 0.375418 0.247303
0.267033 0.377859 0.247654
0.272175 0.385367 0.248585
0.290349 0.40058 0.185626
0.460472 0.436149 0.123049
0.682322 0.511406 0.346365
0.670848 0.503044 0.378225
0.730526 0.567605 0.467552
0.862364 0.721386 0.617243
0.513512 0.578058 0
0.516152 0.57966 0
0.521614 0.582864 0
0.532677 0.590341 0.0178378
0.581872 0.617075 0.303273
0.644694 0.592691 0.274891
0.731807 0.566247 0.439155
0.750469 0.586892 0.487312
0.874525 0.740078 0.629328
0.616938 0.652461 0.443885
0.617411 0.65275 0.444526
0.618158 0.653193 0.445472
0.619593 0.654002 0.447044
0.623484 0.655955 0.451621
0.650736 0.668284 0.471061
0.728466 0.688716 0.498543
0.806897 0.649378 0.539437
0.895018 0.777569 0.651102
0.701091 0.702434 0.532967
0.702052 0.702983 0.533928
0.703609 0.703868 0.535454
0.705577 0.705013 0.537301
0.70898 0.707103 0.540261
0.719799 0.712932 0.547463
0.771756 0.739269 0.57525
0.875853 0.77673 0.602777
0.924437 0.852598 0.679423
0.924941 0.861158 0.674769
0.925155 0.86157 0.675196
0.925566 0.862333 0.676005
0.925917 0.863005 0.676707
0.926406 0.86392 0.677638
0.926955 0.864942 0.678691
0.928283 0.867414 0.681208
0.931044 0.872816 0.686976
0.932494 0.875471 0.689693
0.134997 0.174014 0.212406
0.136873 0.17615 0.221622
0.174578 0.163272 0.264714
0.276143 0.192752 0.282887
0.398108 0.251987 0.282582
0.629297 0.446937 0.333776
0.653986 0.481468 0.357107
0.710781 0.549294 0.446571
0.82388 0.667033 0.578622
0.140063 0.181201 0.22121
0.142184 0.183886 0.230106
0.184833 0.180957 0.278035
0.287541 0.202762 0.29308
0.412116 0.263264 0.289158
0.63064 0.449271 0.335973
0.65594 0.483925 0.360327
0.714717 0.55288 0.450828
0.832609 0.679118 0.587503
0.160891 0.212436 0.246632
0.163592 0.216052 0.252842
0.202762 0.231403 0.293706
0.322148 0.251423 0.319097
0.454582 0.301091 0.306355
0.632898 0.45301 0.339529
0.658442 0.487129 0.36437
0.719249 0.557031 0.455711
0.842557 0.693126 0.597528
0.221347 0.304631 0.300465
0.223758 0.30811 0.303716
0.235294 0.320577 0.31487
0.345312 0.357641 0.332067
0.477424 0.38381 0.339956
0.641398 0.465232 0.350896
0.662089 0.49192 0.370184
0.724285 0.56173 0.46128
0.852735 0.707485 0.607721
0.289815 0.405768 0.322683
0.291951 0.408347 0.323934
0.298436 0.41561 0.326955
0.337881 0.436576 0.322789
0.468345 0.461692 0.341527
0.6757 0.518013 0.392905
0.67422 0.507515 0.388708
0.731701 0.568795 0.469245
0.863539 0.723095 0.618448
0.51284 0.586328 0.123598
0.516548 0.588724 0.13022
0.523186 0.592981 0.161013
0.5355 0.601297 0.240391
0.576822 0.619776 0.330953
0.642588 0.596231 0.360403
0.734462 0.5691 0.444984
0.751751 0.58819 0.489128
0.875624 0.741741 0.630503
0.618769 0.653651 0.446967
0.619272 0.653956 0.447654
0.620066 0.654429 0.448661
0.621469 0.655222 0.45037
0.625055 0.657267 0.455024
0.653132 0.669871 0.473976
0.730404 0.689174 0.499855
0.807828 0.650446 0.540551
0.895842 0.779263 0.652033
0.702434 0.703334 0.53431
0.703197 0.703761 0.535058
0.70489 0.704738 0.536706
0.706996 0.705974 0.538659
0.710475 0.70808 0.541634
0.721523 0.713878 0.548638
0.774121 0.740642 0.576394
0.876646 0.777859 0.603571
0.924666 0.853101 0.679698
0.925063 0.861372 0.674998
0.925338 0.861891 0.675547
0.925734 0.862654 0.676341
0.92607 0.863294 0.676982
0.926574 0.864256 0.677974
0.927077 0.865187 0.67895
0.928405 0.867658 0.681468
0.931105 0.872923 0.687099
0.932509 0.875517 0.689723
0.186175 0.242741 0.320562
0.187579 0.244068 0.325811
0.194369 0.245121 0.360388
0.290227 0.276997 0.413581
0.409247 0.269245 0.404868
0.634897 0.456535 0.389685
0.661082 0.492348 0.390509
0.713909 0.553048 0.454185
0.825238 0.668666 0.579965
0.189105 0.246876 0.326528
0.190585 0.248264 0.331853
0.197223 0.249821 0.366171
0.296483 0.28452 0.42092
0.417823 0.277684 0.411185
0.63624 0.458824 0.391211
0.662821 0.494667 0.393423
0.717815 0.556634 0.458412
0.834348 0.681514 0.589166
0.195926 0.256687 0.338277
0.197421 0.258198 0.343374
0.206271 0.26247 0.373754
0.308003 0.301656 0.434256
0.436316 0.301839 0.424506
0.638453 0.462394 0.394003
0.665171 0.497765 0.397131
0.722347 0.5608 0.463264
0.844251 0.695476 0.599145
0.251804 0.330968 0.39353
0.255085 0.3337 0.397299
0.268803 0.342382 0.410666
0.350271 0.374823 0.440208
0.469459 0.383658 0.441901
0.645121 0.472618 0.402106
0.66894 0.502785 0.402899
0.727535 0.565621 0.468696
0.854322 0.709773 0.609262
0.382788 0.451713 0.427451
0.38555 0.453346 0.428672
0.392233 0.45687 0.431342
0.416205 0.464897 0.436591
0.481193 0.476265 0.440589
0.624811 0.508019 0.442267
0.681697 0.518975 0.421027
0.735302 0.572839 0.47628
0.864988 0.725292 0.619928
0.509865 0.595331 0.394751
0.512963 0.597864 0.396292
0.517708 0.601267 0.399741
0.527276 0.606424 0.408423
0.535821 0.590173 0.429664
0.581567 0.565728 0.45156
0.746914 0.582849 0.474998
0.756909 0.592782 0.49601
0.876966 0.743893 0.631952
0.631724 0.665278 0.472206
0.632456 0.66569 0.472969
0.63386 0.666468 0.474281
0.636118 0.667659 0.476371
0.641794 0.670619 0.481483
0.669612 0.682506 0.497169
0.734905 0.689357 0.505501
0.809766 0.652293 0.544259
0.896895 0.78146 0.653223
0.705257 0.705318 0.537118
0.706386 0.705959 0.538186
0.707881 0.706813 0.53959
0.710048 0.70808 0.541527
0.713695 0.710216 0.544427
0.726329 0.716442 0.551858
0.781003 0.744961 0.580041
0.877363 0.779171 0.604547
0.924941 0.853773 0.680064
0.925292 0.861814 0.675441
0.925566 0.862333 0.67599
0.925902 0.862959 0.676646
0.926268 0.863661 0.677394
0.926711 0.8645 0.678248
0.927245 0.865507 0.679286
0.928618 0.86807 0.68191
0.931182 0.873106 0.687297
0.932525 0.875547 0.689769
0.261509 0.330526 0.465507
0.265385 0.333883 0.473045
0.283131 0.347921 0.505226
0.353536 0.389487 0.605295
0.437385 0.424262 0.622461
0.57789 0.443641 0.508888
0.667124 0.503685 0.433249
0.721828 0.562097 0.474174
0.829496 0.674327 0.584939
0.269932 0.338674 0.477501
0.274052 0.342229 0.485512
0.295995 0.359167 0.522667
0.358618 0.394537 0.606638
0.440482 0.428473 0.62324
0.57789 0.443366 0.50486
0.66891 0.506035 0.435264
0.725948 0.565835 0.478248
0.838346 0.686885 0.593927
0.282795 0.35137 0.495415
0.287251 0.355093 0.502998
0.315816 0.376287 0.548318
0.365972 0.402335 0.608576
0.444907 0.435355 0.624567
0.578973 0.446052 0.503883
0.671244 0.509117 0.437919
0.7308 0.570275 0.483009
0.847959 0.700587 0.603738
0.321492 0.385977 0.544366
0.330495 0.392416 0.558801
0.355077 0.408087 0.596613
0.381643 0.419272 0.612482
0.453788 0.447913 0.626261
0.586175 0.459144 0.510124
0.674815 0.513726 0.441794
0.736538 0.575479 0.48838
0.85774 0.714565 0.613733
0.438193 0.481819 0.591959
0.439536 0.48249 0.592126
0.442817 0.484031 0.592386
0.447791 0.485023 0.585
0.480705 0.49131 0.561349
0.592004 0.500511 0.521813
0.6851 0.526131 0.453071
0.745495 0.583383 0.496178
0.868086 0.729686 0.624399
0.517693 0.554101 0.513802
0.518929 0.555108 0.514534
0.520958 0.55668 0.515831
0.524559 0.559121 0.517922
0.536416 0.561883 0.520256
0.578363 0.564752 0.522026
0.747494 0.5935 0.513939
0.766629 0.602914 0.515465
0.880003 0.748425 0.637263
0.630549 0.678584 0.507927
0.631373 0.679164 0.508629
0.632929 0.680201 0.509819
0.635554 0.681743 0.511589
0.640925 0.684642 0.515389
0.660197 0.687648 0.524407
0.702708 0.664271 0.538064
0.818402 0.661387 0.565316
0.898573 0.784421 0.655955
0.737881 0.727153 0.564935
0.739467 0.728176 0.565957
0.741848 0.729717 0.567498
0.745174 0.731868 0.569635
0.750179 0.735134 0.572763
0.761501 0.74287 0.579797
0.808667 0.765713 0.596323
0.881422 0.787228 0.612634
0.9252 0.854246 0.680644
0.925124 0.86154 0.675212
0.925383 0.862028 0.675715
0.925811 0.862837 0.676539
0.926223 0.8636 0.677348
0.926741 0.864576 0.67834
0.927413 0.865843 0.679637
0.929 0.868803 0.682719
0.931365 0.873457 0.687678
0.932555 0.875608 0.689845
0.457252 0.485267 0.630014
0.45864 0.486336 0.63032
0.460975 0.48806 0.630915
0.464958 0.490761 0.631769
0.475257 0.496773 0.633661
0.524544 0.518944 0.645426
0.663447 0.536614 0.532158
0.741024 0.58175 0.509804
0.846372 0.69575 0.613825
0.462455 0.489387 0.631189
0.463844 0.490455 0.631495
0.466178 0.49218 0.63212
0.470192 0.494911 0.633066
0.480446 0.500893 0.634943
0.528038 0.522652 0.646357
0.670024 0.540688 0.532845
0.74583 0.586038 0.513878
0.854292 0.707546 0.621073
0.468635 0.494331 0.632609
0.470008 0.495384 0.632914
0.472328 0.497108 0.63357
0.476371 0.49984 0.634607
0.486564 0.505913 0.636454
0.532341 0.527062 0.647471
0.680049 0.545861 0.532708
0.751263 0.590875 0.518441
0.862623 0.720119 0.628656
0.476692 0.500877 0.634546
0.478065 0.501915 0.634882
0.480339 0.503594 0.635447
0.484352 0.506294 0.63653
0.494072 0.512261 0.638285
0.53756 0.53257 0.648844
0.692103 0.552026 0.532647
0.757809 0.596613 0.523842
0.871183 0.732998 0.63621
0.490639 0.512474 0.63801
0.491936 0.513481 0.638315
0.494148 0.515114 0.638865
0.497993 0.51783 0.639933
0.50695 0.523705 0.642191
0.546929 0.541939 0.651255
0.69131 0.55845 0.543404
0.766842 0.604425 0.531304
0.88014 0.746899 0.644083
0.551858 0.567849 0.6542
0.553063 0.568826 0.654505
0.554726 0.570214 0.654582
0.557168 0.572076 0.654719
0.56228 0.575677 0.655467
0.586419 0.58648 0.651392
0.705821 0.593256 0.583612
0.782483 0.619547 0.547066
0.89015 0.76376 0.652888
0.626276 0.650721 0.592782
0.627558 0.651804 0.593729
0.629374 0.653208 0.595148
0.631815 0.654978 0.596658
0.636011 0.657404 0.598779
0.648295 0.656962 0.600855
0.693278 0.65214 0.601312
0.833616 0.677958 0.605737
0.903258 0.792996 0.664363
0.747097 0.753826 0.590967
0.749294 0.755657 0.592111
0.751827 0.757946 0.593576
0.754971 0.760845 0.595361
0.75964 0.765164 0.598062
0.769879 0.776333 0.605249
0.812787 0.795804 0.621592
0.901106 0.813169 0.645335
0.925032 0.852872 0.682445
0.926863 0.864942 0.678798
0.927092 0.86537 0.679255
0.927504 0.866148 0.680064
0.927916 0.866926 0.680873
0.928359 0.867781 0.681773
0.929046 0.869093 0.683131
0.930282 0.871519 0.685725
0.931792 0.874418 0.688731
0.932799 0.876188 0.690501
0.592157 0.597345 0.664134
0.593774 0.598627 0.664546
0.596063 0.600397 0.665125
0.59881 0.602472 0.665812
0.603311 0.605676 0.666911
0.612818 0.612299 0.668711
0.655039 0.630976 0.676188
0.815167 0.659648 0.631281
0.891829 0.759594 0.661677
0.598672 0.602518 0.665797
0.60029 0.6038 0.666194
0.602579 0.60557 0.666773
0.605188 0.607492 0.667414
0.609842 0.610788 0.668513
0.619547 0.617472 0.670283
0.663401 0.636851 0.67776
0.8206 0.665278 0.636881
0.895476 0.769039 0.664698
0.60589 0.608209 0.667613
0.607507 0.609491 0.668025
0.609812 0.611261 0.668589
0.612634 0.613352 0.669276
0.617456 0.616724 0.670375
0.627436 0.623453 0.672129
0.672557 0.643565 0.679484
0.82681 0.671473 0.642939
0.899321 0.77911 0.667781
0.613703 0.614328 0.669566
0.615351 0.615625 0.669978
0.6177 0.617426 0.670558
0.620645 0.619623 0.671244
0.625605 0.623041 0.672328
0.636118 0.630014 0.674098
0.682368 0.650965 0.681331
0.833219 0.67776 0.649119
0.902922 0.788739 0.670573
0.624094 0.62237 0.672053
0.625772 0.623667 0.672465
0.628199 0.625498 0.67303
0.631205 0.62771 0.673716
0.636225 0.631113 0.674754
0.64683 0.637995 0.676432
0.695155 0.659953 0.683421
0.840421 0.684871 0.65597
0.906416 0.798367 0.673121
0.640208 0.634363 0.675563
0.641917 0.635645 0.675944
0.644465 0.637507 0.676493
0.647608 0.63975 0.67715
0.652766 0.643229 0.678141
0.666102 0.652857 0.680476
0.718196 0.676585 0.686458
0.853468 0.700694 0.662303
0.910002 0.808774 0.675654
0.70901 0.701961 0.6907
0.712108 0.70515 0.691279
0.71667 0.709728 0.69189
0.721691 0.714565 0.692485
0.728588 0.720653 0.693202
0.742321 0.731914 0.693782
0.792813 0.750042 0.692424
0.892668 0.754376 0.6795
0.914153 0.820935 0.679072
0.841794 0.831815 0.678523
0.844404 0.833051 0.678843
0.84802 0.834745 0.679271
0.851469 0.836316 0.679789
0.856184 0.838407 0.68043
0.863371 0.841306 0.681514
0.881376 0.844831 0.683268
0.920684 0.842298 0.684352
0.926406 0.854765 0.687083
0.93106 0.873747 0.688472
0.931182 0.873976 0.688701
0.931334 0.874235 0.688975
0.931502 0.874525 0.68925
0.931701 0.874861 0.68957
0.931945 0.875288 0.689982
0.932372 0.876005 0.690715
0.932982 0.877012 0.691661
0.933486 0.877699 0.692302
0.893843 0.829938 0.694087
0.8963 0.831434 0.694026
0.899596 0.833417 0.69395
0.902937 0.835401 0.693874
0.905837 0.837156 0.693812
0.907866 0.838148 0.693782
0.910155 0.839612 0.693645
0.921996 0.841443 0.69369
0.924086 0.846113 0.690684
0.903929 0.836057 0.693858
0.905623 0.837156 0.693828
0.906523 0.837919 0.693812
0.907546 0.838773 0.693812
0.908721 0.839658 0.693812
0.910613 0.84065 0.693782
0.912795 0.84213 0.693645
0.922957 0.843992 0.693736
0.925002 0.848753 0.690944
0.90811 0.839307 0.693812
0.908843 0.839948 0.693812
0.909819 0.840787 0.693812
0.910826 0.841627 0.693797
0.911894 0.842451 0.693797
0.913649 0.843442 0.693782
0.915709 0.844938 0.69366
0.92401 0.84683 0.693767
0.925978 0.851514 0.691234
0.911376 0.84213 0.693797
0.912093 0.842756 0.693797
0.913146 0.843656 0.693797
0.914076 0.84445 0.693797
0.91519 0.845335 0.693782
0.916793 0.846342 0.693782
0.918624 0.847761 0.693675
0.925048 0.849683 0.693797
0.926894 0.854124 0.691524
0.914733 0.845029 0.693782
0.91545 0.845655 0.693782
0.916411 0.846494 0.693782
0.917403 0.847349 0.693782
0.918471 0.848234 0.693782
0.919905 0.849256 0.693767
0.921706 0.850767 0.69369
0.926101 0.852644 0.693828
0.927779 0.856611 0.691814
0.918593 0.848447 0.693767
0.919264 0.849073 0.693767
0.920165 0.849897 0.693767
0.92108 0.850721 0.693767
0.922057 0.851606 0.693767
0.923247 0.852644 0.693767
0.924743 0.854185 0.693721
0.927306 0.856077 0.693858
0.928679 0.859174 0.692134
0.922225 0.852049 0.693767
0.922866 0.852674 0.693767
0.923705 0.853513 0.693767
0.924559 0.854368 0.693767
0.925505 0.85536 0.693767
0.926406 0.856413 0.693782
0.927153 0.857893 0.693797
0.928466 0.859403 0.693889
0.929427 0.861433 0.692317
0.92871 0.863218 0.693828
0.928832 0.863539 0.693828
0.929015 0.863996 0.693828
0.929152 0.864378 0.693843
0.929274 0.864759 0.693843
0.929458 0.865248 0.693843
0.929793 0.866102 0.693843
0.930571 0.867002 0.693889
0.931075 0.867079 0.693049
0.932967 0.877516 0.693553
0.932982 0.877531 0.693553
0.933013 0.877577 0.693553
0.933043 0.877623 0.693538
0.933074 0.877668 0.693538
0.93312 0.877714 0.693553
0.933181 0.877806 0.693553
0.933364 0.877958 0.693614
0.933822 0.878172 0.693782
